packages/foundations/assets/icons/functional/images/layout/fullscreen.svg

<svg xmlns="http://www.w3.org/2000/svg" width="32" height="32" fill="none"><path fill="#1A1C1F" fill-rule="evenodd" d="M3.748 3.038c-.202.049-.43.19-.557.345-.201.246-.209.434-.193 4.248l.015 3.71.143.216c.384.58 1.3.585 1.68.011l.151-.227.015-3.164.015-3.164h6.162l.264-.132c.385-.193.53-.435.53-.881 0-.294-.024-.39-.142-.569-.289-.438-.078-.417-4.231-.426-2.024-.005-3.757.01-3.852.033m16.98.007c-.48.115-.765.532-.712 1.045.04.38.206.622.541.791l.264.132h6.162l.015 3.164.015 3.164.151.227c.38.574 1.296.569 1.68-.011l.143-.216.014-3.76.015-3.761-.133-.273a.84.84 0 0 0-.362-.403l-.228-.131-3.68-.009c-2.096-.005-3.768.013-3.885.041M3.64 20.056c-.235.073-.529.379-.597.623-.036.131-.056 1.476-.056 3.857v3.656l.137.275c.113.228.185.299.416.412l.279.136 3.73-.014c4.209-.016 3.993.006 4.282-.432.118-.179.142-.275.142-.569 0-.422-.136-.667-.479-.864l-.214-.123-3.132-.015-3.131-.015-.015-3.158-.015-3.158-.123-.198a1.1 1.1 0 0 0-.306-.31c-.211-.13-.662-.181-.918-.103m24 0c-.235.073-.529.379-.597.623-.036.129-.056 1.292-.056 3.252v3.052l-3.134.015-3.133.015-.214.123c-.343.197-.479.442-.479.864 0 .294.024.39.142.569.289.438.073.416 4.282.432l3.73.014.28-.137c.235-.114.303-.182.418-.417l.137-.281-.015-3.757-.014-3.756-.123-.198a1.1 1.1 0 0 0-.306-.31c-.211-.13-.662-.181-.918-.103"/></svg>

<svg width="32" height="32" viewBox="0 0 32 32" fill="none" xmlns="http://www.w3.org/2000/svg"><path d="M3.748 3.038 C 3.546 3.087,3.318 3.228,3.191 3.383 C 2.990 3.629,2.982 3.817,2.998 7.631 L 3.013 11.341 3.156 11.557 C 3.540 12.137,4.456 12.142,4.836 11.568 L 4.987 11.341 5.002 8.177 L 5.017 5.013 8.098 5.013 L 11.179 5.013 11.443 4.881 C 11.828 4.688,11.973 4.446,11.973 4.000 C 11.973 3.706,11.949 3.610,11.831 3.431 C 11.542 2.993,11.753 3.014,7.600 3.005 C 5.576 3.000,3.843 3.015,3.748 3.038 M20.728 3.045 C 20.248 3.160,19.963 3.577,20.016 4.090 C 20.056 4.470,20.222 4.712,20.557 4.881 L 20.821 5.013 23.902 5.013 L 26.983 5.013 26.998 8.177 L 27.013 11.341 27.164 11.568 C 27.544 12.142,28.460 12.137,28.844 11.557 L 28.987 11.341 29.001 7.581 L 29.016 3.820 28.883 3.547 C 28.786 3.349,28.687 3.239,28.521 3.144 L 28.293 3.013 24.613 3.004 C 22.517 2.999,20.845 3.017,20.728 3.045 M3.640 20.056 C 3.405 20.129,3.111 20.435,3.043 20.679 C 3.007 20.810,2.987 22.155,2.987 24.536 L 2.987 28.192 3.124 28.467 C 3.237 28.695,3.309 28.766,3.540 28.879 L 3.819 29.015 7.549 29.001 C 11.758 28.985,11.542 29.007,11.831 28.569 C 11.949 28.390,11.973 28.294,11.973 28.000 C 11.973 27.578,11.837 27.333,11.494 27.136 L 11.280 27.013 8.148 26.998 L 5.017 26.983 5.002 23.825 L 4.987 20.667 4.864 20.469 C 4.796 20.361,4.659 20.221,4.558 20.159 C 4.347 20.029,3.896 19.978,3.640 20.056 M27.640 20.056 C 27.405 20.129,27.111 20.435,27.043 20.679 C 27.007 20.808,26.987 21.971,26.987 23.931 L 26.987 26.983 23.853 26.998 L 20.720 27.013 20.506 27.136 C 20.163 27.333,20.027 27.578,20.027 28.000 C 20.027 28.294,20.051 28.390,20.169 28.569 C 20.458 29.007,20.242 28.985,24.451 29.001 L 28.181 29.015 28.461 28.878 C 28.696 28.764,28.764 28.696,28.879 28.461 L 29.016 28.180 29.001 24.423 L 28.987 20.667 28.864 20.469 C 28.796 20.361,28.659 20.221,28.558 20.159 C 28.347 20.029,27.896 19.978,27.640 20.056 " fill="#1A1C1F" stroke="none" fill-rule="evenodd"></path></svg>
